X: 13
M: C
L: 1/16
K: C
c4c3c c4(e3d/c/) | d4d3d d4e2f2 |\
f2e2a2g2 f4e4 | d2c2B2A2 G2f2e2d2 |\
c4c3c c4(e3d/c/) | d4d3d d4e2f2 |
(fe).d.c (ba).g.f e4Td4 | c4c3c c4 :: e2f2 |\
g4g3g g4^g4 | a4(aba^g) a4d2e2 |\
f4f3f f4^f4 | g4(gag^f) g4=f4 |\
e4e3e e2c2e2g2 |
d4d3d d2G2d2f2 |\
(f2e2)(a2g2) f4e4 | d2c2B2A2 G2f2e2d2 |\
c4c3c c4(e2dc) | d4d3d d4e2f2 |\
(fe).d.c (ba).g.f e4Td4 | c4c3c c4 :|


